X: 185
T: SLIDE: Priest
T: Is It the Priest You Want?
C: C: Trad.; S: Bothy Band; Denis Murphy
C: Set Leaders: Oliushka, Anton
Z: Anton Zille ed.; Kuddel at The Session
N: https://thesession.org/members/26966/sets/63219
R: Slide
M: 12/8
L: 1/8
Q: 3/8=130
K: Gmaj
|:g|edB d2 B d2 B B2 g|edB d2 B c2 A A2 g|
edB d2 B BAB ~g3|BAB ~g3 B2 G G2:||
|:f|gbg f/g/af g2 e e2 d|eaa aga b2 e e2 f|
gbg faf g2 e e2 d|BAB ~g3 B2 G G2:||

